X:1
T:"Matins Gris"
R:bourree a trois temps
A:France
F:http://simonwascher.info
Z:abc transcription Simon Wascher
M:3/8
L:1/16
K:D mixo
B2GBAG | F2DFGF | EFGBAG | A2GFED |
B2GBAG | F2DFGF | E2EFG2 |1 E2F2G2 :|\
                         [2 E2G2B2 ||
|:\
e2c2A2 | B2BAGB | AGFGAd | B2ABG2 |
e2c2A2 | B2BAGB | AGFGAF | G6 :|
